icons/svg/additional/abandoned.svg

<?xml version="1.0" encoding="UTF-8" standalone="no"?>
<svg
   xmlns:dc="http://purl.org/dc/elements/1.1/"
   xmlns:cc="http://creativecommons.org/ns#"
   xmlns:rdf="http://www.w3.org/1999/02/22-rdf-syntax-ns#"
   xmlns:svg="http://www.w3.org/2000/svg"
   xmlns="http://www.w3.org/2000/svg"
   xmlns:sodipodi="http://sodipodi.sourceforge.net/DTD/sodipodi-0.dtd"
   xmlns:inkscape="http://www.inkscape.org/namespaces/inkscape"
   width="580"
   height="580"
   id="svg2"
   version="1.1"
   inkscape:version="0.48.4 r9939"
   sodipodi:docname="abandoned_poi.svg">
  <defs
     id="defs13" />
  <sodipodi:namedview
     pagecolor="#ffffff"
     bordercolor="#666666"
     borderopacity="1"
     objecttolerance="10"
     gridtolerance="10"
     guidetolerance="10"
     inkscape:pageopacity="0"
     inkscape:pageshadow="2"
     inkscape:window-width="1920"
     inkscape:window-height="1004"
     id="namedview11"
     showgrid="false"
     inkscape:zoom="0.40689656"
     inkscape:cx="170.03897"
     inkscape:cy="394.87357"
     inkscape:window-x="1680"
     inkscape:window-y="0"
     inkscape:window-maximized="1"
     inkscape:current-layer="svg2" />
  <metadata
     id="metadata2975">image/svg+xmlen<rdf:RDF>
  <cc:Work
     rdf:about="">
    <dc:format>image/svg+xml</dc:format>
    <dc:type
       rdf:resource="http://purl.org/dc/dcmitype/StillImage" />
    <dc:title />
  </cc:Work>
</rdf:RDF>
</metadata>
  <g
     transform="translate(0.0735,-0.43022222)"
     id="g1327">
    <path
       inkscape:connector-curvature="0"
       d="M 66.275,1.768 C 24.94,1.768 1.704,23.139 1.704,66.804 l 0,450.123 c 0,40.844 20.896,62.229 62.192,62.229 l 452.024,0 c 41.307,0 62.229,-20.314 62.229,-62.229 l 0,-450.123 c 0,-42.601 -20.922,-65.036 -63.521,-65.036 -0.004,0 -448.495,-0.143 -448.353,0 z"
       style="fill:#111111;stroke:#eeeeee;stroke-width:3.40799999"
       id="path1329" />
  </g>
  <path
     style="color:#000000;fill:#ffffff;fill-opacity:1;fill-rule:nonzero;stroke:none;stroke-width:28.30400085000000132;marker:none;visibility:visible;display:inline;overflow:visible;enable-background:accumulate"
     d="m 59.762391,89.96451 0,412.63348 463.638319,0 0,-252.46147 c -8.49663,10.42319 -19.23409,21.61411 -24.87404,27.25406 -11.34225,11.34225 -19.09157,-64.83757 -26.64455,-68.61406 -3.60983,-1.80492 -9.39023,-4.67878 -16.3118,-7.74956 l 0,193.95666 -130.98784,0 0,-107.6521 c -13.52003,-7.65615 -25.06718,-14.24604 -30.2436,-16.83424 -31.67068,-15.83534 -20.14117,-74.22423 -33.05897,-82.8361 -4.50686,-3.00457 -5.28187,-5.09476 -9.75225,-6.5015 l 0,208.62854 -125.93757,0 0,-221.77666 108.81662,0 C 218.77626,126.91298 128.7453,150.90762 117.60834,139.77066 108.03958,130.2019 115.5765,104.60458 112.38392,89.96451 z"
     id="rect2990"
     inkscape:connector-curvature="0"
     sodipodi:nodetypes="ccccssccccsscccccscc" />
</svg>

<svg width="580" height="580" viewBox="0 0 580 580" fill="none" xmlns="http://www.w3.org/2000/svg">
<path d="M59.7625 89.9646V502.598H523.401V250.137C514.904 260.56 504.167 271.751 498.527 277.391C487.184 288.733 479.435 212.553 471.882 208.777C468.272 206.972 462.492 204.098 455.57 201.027V394.984H324.583V287.332C311.063 279.675 299.515 273.086 294.339 270.497C262.668 254.662 274.198 196.273 261.28 187.661C256.773 184.657 255.998 182.567 251.528 181.16V389.788H125.59V168.012H234.407C218.776 126.913 128.745 150.908 117.608 139.771C108.04 130.202 115.577 104.605 112.384 89.9646H59.7625Z" fill="white"/>
</svg>
